X: 11366
T: Earl The Breakfast Boiler
R: jig
M: 6/8
K: Amixolydian
ABc cBA|BEE EFA|BEE dEE|FED DEF|
ABc cBA|BEE EFA|Bee dee|AGF FED:|
ABc cBA|Bee edB|[M:2/4]ffed|eedB|ffed|
[M:6/8] ABc cBA|Bee edB|[M:2/4] ffed|ggfe|aafd|[M:6/8]:|
aea eea|eag fed|gee efg|aff fed|
aea eea|eag fga|beg eea|dfa fed:|

